X: 2237
T: Away With The Faeries
R: jig
M: 6/8
K: Amajor
Ace ~B3|Ace dfa|e2e fec|~B3 Bce|
Ace ~B3|Ace dfa|e2e fec|BAG AcB:|
Aag f3|efa ecA|dfa ecA|ABc ~B3|
Aag f3|efa ecA|dfa ecA|BAG AcB|
Aag f3|efa ecA|dfa ecA|ABc ~B3|
~A3 ~B3|c2e dfa|e2e fec|BAG AcB||

